!!!COM:	Ockeghem, Johannes
!!!CDT:	~1425-1497/02/06
!!!OPR:	Missa Ecce ancilla Domini
!!!ONM:	5
!!!OTL:	Agnus Dei
!!!AGN:	Mass; Agnus Dei
!!!SCT:	Ock1006e
!!!SCA:	Ock1006e
!!!voices:	4
!!!voices-OPR:	4
**kern	**kern	**kern	**kern
*staff4	*staff3	*staff2	*staff1
*Ivox	*Ivox	*Ivox	*Ivox
*I"Bassus	*I"Tenor	*I"Contratenor	*I"Discantus
*I'B	*I'T	*I'Ct	*I'D
*>[A,B,C]	*>[A,B,C]	*>[A,B,C]	*>[A,B,C]
*>A	*>A	*>A	*>A
*clefF4	*clefGv2	*clefGv2	*clefG2
*k[]	*k[]	*k[]	*k[]
*M3/1	*M3/1	*M3/1	*M3/1
*met(O)	*met(O)	*met(O)	*met(O)
!!section: Agnus Dei I
!!!OMD: Agnus Dei I
=1-	=1-	=1-	=1-
0.r	0.r	1.G	0.g
.	.	2A/	.
.	.	1B	.
=2	=2	=2	=2
0.r	0.r	0.c	1.g
.	.	.	1a
.	.	.	4g/
.	.	.	4f/
=3	=3	=3	=3
0.r	0.r	1c	1e
.	.	2d\	1r
.	.	2.e\	.
.	.	.	2b\
.	.	4d\	.
.	.	4c\	4a/
.	.	4B\	4b\
=4	=4	=4	=4
0.r	0.r	1A	1cc
.	.	2G/	2b\
.	.	1c	2g/
.	.	.	1a
.	.	2d\	.
=5	=5	=5	=5
0.r	0.r	2e\	1g
.	.	1c	.
.	.	.	2a/
.	.	2B\	2.g/
.	.	2c\	.
.	.	.	4f/
.	.	2d\	2e/
=6	=6	=6	=6
0.r	0.r	1B	1.d
.	.	1G	.
.	.	.	2.g/
.	.	1c	.
.	.	.	4f/
.	.	.	[2a/
=7	=7	=7	=7
0.r	0.r	2d\	2a/]
.	.	2B\	1g
.	.	1A	.
.	.	.	2f/
.	.	2G/	1g
.	.	[2c\	.
=8	=8	=8	=8
0.r	0.r	2c\]	2a/
.	.	2d\	1b
.	.	1B	.
.	.	.	1g
.	.	1e	.
.	.	.	[2cc\
=9	=9	=9	=9
0.r	0.r	2c\	2cc\]
.	.	2d\	2b\
.	.	2c\	2a/
.	.	1e	2g/
.	.	.	1e
.	.	[2A/	.
=10	=10	=10	=10
0.r	0.r	2A/]	2f/
.	.	2G/	2.e/
.	.	2A/	.
.	.	.	4a/
.	.	2c\	1a
.	.	1B	.
.	.	.	2g#i/
=11	=11	=11	=11
0.D	[0.d	0A	1a
.	.	.	1r
.	.	1r	1a
=12	=12	=12	=12
1.G	0.d]	1.B	1.g
2A\	.	2c\	1.f
1B	.	1d	.
=13	=13	=13	=13
1c	0.c	1A	1e
0A	.	1r	1.f
.	.	1c	.
.	.	.	2e/
=14	=14	=14	=14
1.G	0B	0d	0g
2F\	.	.	.
2.D\	[1d	1B	2.f/
4E\	.	.	4g/
=15	=15	=15	=15
1F	1d]	1A	1a
2G\	0d	1r	2g/
2F\	.	.	1a
1D	.	1F	.
.	.	.	2b\
=16	=16	=16	=16
0C	[0.e	1G	1cc
.	.	1c	2g/
.	.	.	1a
1c	.	1A	.
.	.	.	2g/
=17	=17	=17	=17
1c	0.e]	2r	1e
.	.	2A/	.
2G\	.	2B\	1r
1A	.	2A/	.
.	.	2c\	1cc
2G\	.	2B\	.
=18	=18	=18	=18
0E	0e	1G	1b
.	.	2B\	1.g
.	.	2c\	.
1F	[1d	1A	.
.	.	.	2a/
=19	=19	=19	=19
1G	1d]	1G	1b
0A	0c	2r	1.a
.	.	1F	.
.	.	2G/	2f/
=20	=20	=20	=20
0D	0d	0A	0f
1G	[1d	1B	1g
=21	=21	=21	=21
1F	1d]	2A/	1a
.	.	1d	.
0E	0G	.	2g/
.	.	2c#i\	1g
.	.	2c#i\	.
.	.	2B\	2e/
=22	=22	=22	=22
0.D	1r	0.d	2.f/
.	.	.	4g/
.	0F	.	2a/
.	.	.	4g/
.	.	.	4a/
.	.	.	2b-i\
.	.	.	[2a/
=23	=23	=23	=23
1r	0.A	1c	2a/]
.	.	.	2g/
0D	.	0d	2f/
.	.	.	2d/
.	.	.	1f
=24	=24	=24	=24
0C	0c	0G	1e
.	.	.	1r
1F	[1c	1A	1a
=25	=25	=25	=25
1A	1c]	1F	1a
0G	0B	1G	2b\
.	.	.	1g
.	.	1d	.
.	.	.	4f/
.	.	.	4g/
=26	=26	=26	=26
[0.D	[0.A	1r	0a
.	.	0d	.
.	.	.	[1f
=27	=27	=27	=27
1D]	0.A]	2r	1f]
.	.	1d	.
1.F	.	.	1.a
.	.	2c\	.
.	.	2d\	.
2E\	.	2c\	2g/
=28	=28	=28	=28
1.C	0.c	1e	1g
.	.	2r	1e
1E	.	1e	.
.	.	.	2.g/
2F\	.	4d\	.
.	.	4c\	4f/
=29	=29	=29	=29
1G	0.G	1B	1d
0C	.	0c	0e
=30	=30	=30	=30
0.Gl	0.Gl	0.Bl	0.dl
!!LO:LB:i:g=z
=31||	=31||	=31||	=31||
*>B	*>B	*>B	*>B
*clefF4	*clefGv2	*clefGv2	*clefG2
*k[]	*k[]	*k[]	*k[]
*M3/1	*M3/1	*M3/1	*M3/1
*met(O)	*met(O)	*met(O)	*met(O)
!!section: Agnus Dei II
!!!OMD: Agnus Dei II
0.r	0.r	0.G	1.g
.	.	.	2a/
.	.	.	2b\
.	.	.	4a/
.	.	.	4b\
=32	=32	=32	=32
0.r	0.r	1A	2.cc\
.	.	.	4a/
.	.	1.G	2b\
.	.	.	1dd
.	.	[2c\	2cc\
=33	=33	=33	=33
0.r	0.r	2c\]	1a
.	.	2d\	.
.	.	1e	2g/
.	.	.	2cc\
.	.	2d\	2dd\
.	.	2c\	[2ee\
=34	=34	=34	=34
0.r	0.r	2e\	2ee\]
.	.	2f\	4dd\
.	.	.	4cc\
.	.	1g	1b
.	.	2a\	2cc\
.	.	[2g\	2b\
=35	=35	=35	=35
0.r	0.r	2g\]	1a
.	.	2f\	.
.	.	2e\	0g
.	.	4d\	.
.	.	4c\	.
.	.	2B\	.
.	.	[2e\	.
=36	=36	=36	=36
0.r	0.r	2e\]	2e/
.	.	1d	1f
.	.	1c	2e/
.	.	.	1d
.	.	2B\	.
=37	=37	=37	=37
0.r	0.r	0c	1c
.	.	.	1r
.	.	1r	2.f/
.	.	.	4g/
=38	=38	=38	=38
0.r	0.r	1r	2.a/
.	.	.	4g/
.	.	1r	2f/
.	.	.	2e/
.	.	2.f\	1d
.	.	4g\	.
=39	=39	=39	=39
0.r	0.r	2.a\	1c
.	.	4g\	.
.	.	2f\	2r
.	.	2e\	2.cc\
.	.	1d	.
.	.	.	4b\
.	.	.	2b\
=40	=40	=40	=40
0.r	0.r	2r	2a/
.	.	2.c\	2g/
.	.	.	1dd
.	.	4B\	.
.	.	2B\	.
.	.	2A/	2cc\
.	.	2G/	[2b\
=41	=41	=41	=41
0.r	0.r	2.d\	2b\]
.	.	.	1ee
.	.	4c\	.
.	.	2c\	.
.	.	2B\	2dd\
.	.	1e	2cc\
.	.	.	[2b\
=42	=42	=42	=42
0.r	0.r	2d\	2b\]
.	.	2c\	1a
.	.	1B	.
.	.	.	2.g/
.	.	1A	.
.	.	.	4f#i/
.	.	.	2f#i/
=43	=43	=43	=43
0.r	0.r	0G	1g
.	.	.	1r
.	.	2r	1e
.	.	[2c\	.
=44	=44	=44	=44
0.r	0.r	2c\]	1f
.	.	2d\	.
.	.	1e	2e/
.	.	.	1g
.	.	2c\	.
.	.	2d\	2f/
=45	=45	=45	=45
0.r	0.r	2c\	1e
.	.	1e	.
.	.	.	1f
.	.	2d\	.
.	.	1e	2e/
.	.	.	2c/
=46	=46	=46	=46
0.r	0.r	2f\	2d/
.	.	1e	2c/
.	.	.	1e
.	.	2c\	.
.	.	2B\	1g
.	.	2c\	.
=47	=47	=47	=47
0.r	0.r	2r	2c/
.	.	2F/	2d/
.	.	2G/	2e/
.	.	2A/	2f/
.	.	2B\	2g/
.	.	2c\	2c/
=48	=48	=48	=48
0.r	0.r	2G/	2g/
.	.	2.c\	2a/
.	.	.	2b\
.	.	4d\	.
.	.	2e\	1cc
.	.	1d	.
.	.	.	2b\
=49	=49	=49	=49
0.r	0.r	1c	1cc
.	.	2d\	1r
.	.	2c\	.
.	.	1A	1cc
=50	=50	=50	=50
0.r	0.r	2G/	1b
.	.	1E	.
.	.	.	2cc\
.	.	2F/	1dd
.	.	1G	.
.	.	.	2b\
=51	=51	=51	=51
0.r	0.r	2.c\	2a/
.	.	.	2g/
.	.	4d\	.
.	.	1e	1cc
.	.	1d	2b\
.	.	.	[2a/
=52	=52	=52	=52
0.r	0.r	2.c\	4a/]
.	.	.	4g/
.	.	.	2.a/
.	.	4A/	.
.	.	2d\	.
.	.	.	4g/
.	.	1d	2f/
.	.	.	1e
.	.	2c#i\	.
=53	=53	=53	=53
0.r	0.r	0d	1d
.	.	.	2r
.	.	.	1f
.	.	1r	.
.	.	.	2g/
=54	=54	=54	=54
0.r	0.r	1F	1a
.	.	1G	2g/
.	.	.	2e/
.	.	2A/	2f/
.	.	2G/	[2g/
=55	=55	=55	=55
0.r	0.r	1B	4g/]
.	.	.	4f/
.	.	.	4e/
.	.	.	4d/
.	.	2.c\	2e/
.	.	.	1c
.	.	4d\	.
.	.	1e	.
.	.	.	2cc\
=56	=56	=56	=56
0.r	0.r	1d	2b\
.	.	.	1a
.	.	1c	.
.	.	.	2g/
.	.	2B\	1dd
.	.	[2e\	.
=57	=57	=57	=57
0.r	0.r	2e\]	2cc\
.	.	1d	2b\
.	.	.	1a
.	.	2c\	.
.	.	2.d\	2f/
.	.	.	2g/
.	.	4c\	.
=58	=58	=58	=58
0.r	0.r	2A/	2a/
.	.	2B\	2d/
.	.	1G	2e/
.	.	.	1d
.	.	1d	.
.	.	.	[2a/
=59	=59	=59	=59
0.r	0.r	2B\	4a/]
.	.	.	4g/
.	.	2G/	1g
.	.	1A	.
.	.	.	2f#i/
.	.	1Gl	1gl
!!LO:LB:i:g=z
=60||	=60||	=60||	=60||
*>C	*>C	*>C	*>C
*clefF4	*clefGv2	*clefGv2	*clefG2
*k[]	*k[]	*k[]	*k[]
*M2/1	*M2/1	*M2/1	*M2/1
*met(C|)	*met(C|)	*met(C|)	*met(C|)
!!section: Agnus Dei  III
!!!OMD: Agnus Dei  III
0G	[0G	0d	0g
=61	=61	=61	=61
1E	0G_	0e	1b
1C	.	.	1cc
=62	=62	=62	=62
1r	0G]	0d	1dd
1G	.	.	1b
=63	=63	=63	=63
2F\	0A	1r	0cc
1F	.	.	.
.	.	1f	.
4E\	.	.	.
4F\	.	.	.
=64	=64	=64	=64
1G	[0G	2d\	1.b
.	.	1e	.
[1E	.	.	.
.	.	4d\	2g/
.	.	4c\	.
=65	=65	=65	=65
2E\]	0G]	2B\	2g/
2C/	.	2c\	2e/
[1BB	.	[1d	1d
=66	=66	=66	=66
1BB]	1D	1d]	0g
1C	[1G	1e	.
=67	=67	=67	=67
1E	1G]	0c	1e
1F	1A	.	1c
=68	=68	=68	=68
0D	0B	1r	0d
.	.	1F	.
=69	=69	=69	=69
0C	0c	1G	0e
.	.	[1c	.
=70	=70	=70	=70
0F	1A	1c]	1r
.	1F	1d	1a
=71	=71	=71	=71
1r	0G	0B	2g/
.	.	.	1g
1E	.	.	.
.	.	.	4f/
.	.	.	4g/
=72	=72	=72	=72
0F	2r	1A	1a
.	1c	.	.
.	.	1c	1r
.	2A/	.	.
=73	=73	=73	=73
1D	1B	1d	1f
1C	1c	1G	1e
=74	=74	=74	=74
1F	0d	1A	1.f
1BB-	.	1B-i	.
.	.	.	2g/
=75	=75	=75	=75
0C	0c	0G	0e
=76	=76	=76	=76
0D	1A	1r	0d
.	1B	1F	.
=77	=77	=77	=77
1C	1.c	1G	1e
[1F	.	2.A/	[1f
.	2A/	.	.
.	.	4B\	.
=78	=78	=78	=78
1F]	1A	0c	1f]
1C	1G	.	2.e/
.	.	.	4f/
=79	=79	=79	=79
2r	1.c	1e	2g/
2C/	.	.	1a
2AA/	.	2e\	.
[2BB/	2B\	[2d\	4g/
.	.	.	4f/
=80	=80	=80	=80
2BB/]	1G	2d\]	2g/
2C/	.	4c\	2e/
.	.	4B\	.
1D	1F	1A	[1d
=81	=81	=81	=81
2BB/	1G	2B\	2d/]
1C	.	2G/	1g
.	1A	1c	.
2AA/	.	.	2f/
=82	=82	=82	=82
2BB/	2D/	2d\	1g
2C/	1G	2c\	.
1D	.	2.A/	1r
.	2F/	.	.
.	.	4B\	.
=83	=83	=83	=83
2C/	2G/	2c\	1g
1G	2B\	2.d\	.
.	1A	.	1a
.	.	4B\	.
2F\	.	2A/	.
=84	=84	=84	=84
1G	1G	2r	2.b\
.	.	2d\	.
.	.	.	4g/
1C	1c	2.e\	2a/
.	.	.	2g/
.	.	4c\	.
=85	=85	=85	=85
1F	1r	2d\	2r
.	.	2c\	1a
1A	[1c	2r	.
.	.	2f\	2f/
=86	=86	=86	=86
0G	1c]	2e\	0g
.	.	1e	.
.	1B	.	.
.	.	4d\	.
.	.	4e\	.
=87	=87	=87	=87
1F	1c	1f	2a/
.	.	.	2cc\
2r	1d	1f	2b\
2D\	.	.	[2a/
=88	=88	=88	=88
2E\	1c	2e\	4a/]
.	.	.	4g/
1F	.	2c\	1a
.	2A/	1d	.
2D\	2B\	.	4g/
.	.	.	4f/
=89	=89	=89	=89
1C	1c	2r	1e
.	.	1G	.
2r	2B\	.	2d/
[2C/	2G/	[2c\	[2e/
=90	=90	=90	=90
2C/]	1A	1c]	2e/]
2AA/	.	.	2c/
2BB/	1G	2B\	2d/
[2C/	.	2G/	[2e/
=91	=91	=91	=91
2C/]	2E/	1A	2e/]
2AA/	2F/	.	2c/
2GG/	1G	2D/	2B/
[2C/	.	2E/	[2c/
=92	=92	=92	=92
2C/]	2E/	1G	2c/]
2GG/	2D/	.	2B/
2C/	2r	2E/	2c/
2BB/	[2G/	2D/	2d/
=93	=93	=93	=93
2C/	2G/]	2r	2e/
2D\	2F/	2d\	2f/
2E\	2G/	2.c\	2e/
2F\	2A/	.	2c/
.	.	4d\	.
=94	=94	=94	=94
2E\	2B\	1e	2r
2C/	2.c\	.	2g/
2F\	.	2f\	2a/
.	4B\	.	.
2E\	2G/	[2g\	2b\
=95	=95	=95	=95
1A	2r	4g\]	2cc\
.	.	4e\	.
.	2c\	2f\	2a/
1G	2B\	[1g	2b\
.	[2e\	.	2g/
=96	=96	=96	=96
2C/	2e\]	2g\]	2.cc\
2.F\	2d\	1a	.
.	.	.	4b\
.	2c\	.	2a/
4E\	.	.	.
2D\	[2d\	[2f\	[2b\
=97	=97	=97	=97
1E	2d\]	4f\]	2b\]
.	.	4e\	.
.	2G/	2c\	1g
1D	1A	1d	.
.	.	.	2f#i/
=98	=98	=98	=98
[0GGl	[0Gl	2B\	[0gl
.	.	1e	.
.	.	2d\	.
=99	=99	=99	=99
0GG]	0G]	0dl	0g]
==	==	==	==
*-	*-	*-	*-
!!!RDF**kern: l=long note in original notation
!!!RDF**kern: i=editorial accidental
!!!RDF**kern: V=start of tuplet marker
!!!RDF**kern: Z=end of tuplet marker
!!!ENC:	Will Watson 12/09/2012
!!!END:	2012/09/29/
!!!EED:	Jesse Rodin
!!!EEV:	2012/09/29/
!!!ONB:	Translated from MusicXML and edited on 2012/09/29/ by Craig Sapp
!!muse2ps: T^@{OPR}^u^@{ONM}{. }@{OTL}^C^@{COM}^i2I150v85,85,85,100Q16
